X:1
T:Title
%%score ( 1 2 ) { 3 | 4 }
L:1/8
Q:1/4=85
M:6/8
K:C
V:1 treble nm="Grand Piano, Soprano"
V:2 treble 
V:3 bass nm="Choir Pad, Beside the Beautiful River"
V:4 bass 
V:1
 [CE]/[DF]<[EG][_E^F]/ [=EG] [Ec]2 | [Gc]/[Gc]/cB [FA] [EG]2 | [EG] [DG]2 [DG][B,D][CE] | %3
w: By~Claud~Hinton~Bottoms * * * * *|||
 [DF] [FA]2- [FA] [EG]2 | [CE]/[DF]/[EG][_E^F] [=EG] [Ec]2 | [Ge]/[Ge]/[Fd][Fc] [FA][Ac][GB] | %6
w: |||
 [FA] [EG]2 [EG][FG][FA] | [FB] [Fd]2- [Fd] [Ec]2 | [Ec] [Fd]2 [Fd][Fd][Ge] | %9
w: |||
 [Fd][Ed]<[Ec] [FA] [EG]2 | [EG]/[EG]<[FA][FA]/ [FA][^FA][FB] | [^Fc][Fe][Fd] [FA] [=Fd]2 | %12
w: |||
 [FG]/[FG]<[Ec][Ec]/ [Ec][Ge][Gd] | [Ge][Ff][Ge] [^Gd][Ac][=GB] | [FA] [EG]2 [EG][FG][FA] | %15
w: |||
 [FB] [Fd]2- [Fd] [Ec]2- | [Ec]6 |] %17
w: ||
V:2
 x6 | z F2 z3 | x6 | x6 | x6 | x6 | x6 | x6 | x6 | x6 | x6 | x6 | x6 | x6 | x6 | x6 | x6 |] %17
V:3
 G,/G,/ C2 C G,2 | B,/B,/A,B,[K:treble] C C2 | C B,2 B,[K:bass]G,G, | B, C2- C C2 | %4
 G,/G,/ C2 C G,2 | _B,/B,/ A,2 CA,=B, | C C2 CB,D | D[K:bass] B,2- B, C2 | G, B,2 B,B,[K:treble]C | %9
 B,C<C C C2 | C/C<CC/ CCC | A,CC C[K:bass] B,2 | B,/B,<CC/[K:treble] CCD | CCC[K:bass] B,A,B, | %14
 C C2[K:treble] CB,D | D B,2- B, C2- | C6 |] %17
V:4
 C,/C,/ C,2 C, C,2 | E,/E,/ F,2 F, C,2 | C, G,2 G,G,,G,, | G,, C,2- C, C,2 | C,/C,/ C,2 C, C,2 | %5
 C,/C,/ F,2 F, F,2 | F, G,2 G,G,G, | G, G,2- G, C,2 | C, G,2 G,G,G, | G,A,<A, F, C,2 | %10
 C,/C,<F,F,/ F,D,D, | D,D,D, D, [G,,G,]2 | G,/G,<C,C,/ .C,2 B, | _B,A,G, E, F,2 | F, G,2 G,G,G, | %15
 G, G,2- G, C,2- | C,6 |] %17

